resources/svg/filter.svg

<svg xmlns="http://www.w3.org/2000/svg" viewBox="0 0 15 15" fill="currentColor"><path fill-rule="evenodd" clip-rule="evenodd" d="M15 3H0V2h15v1zm-3 5H3V7h9v1zm-2 5H5v-1h5v1z" fill="currentColor"/></svg>

<svg xmlns="http://www.w3.org/2000/svg" viewBox="0 0 15 15" fill="currentColor"><path fill-rule="evenodd" clip-rule="evenodd" d="M15 3H0V2H15V3ZM12 8H3V7H12V8ZM10 13H5V12H10V13Z" fill="black"/></svg>
